X:604
T:Mrs. MacLeod of Rassay
C:Joe Buchanan's Scottish Tome - Page 173.2
I:173 2
Z:Carl Allison
R:Reel
L:1/8
M:4/4
K:A
cB | A2 a2 fefa | c2 cB c2 cB | A2 a2 fefa | B2 BA BdcB |
A2 a2 fefa | c2 cB c2 ce | f2 fg fefg | afec BdcB :|
ABcd eAcA | c2 cB c2 cB | ABcd eAcA | B2 BA BdcB |
ABcd eAcA | c2 cB c2 ce | f2 fg fefg |1 afec BdcB :|2 a4 a2 |]
%
W:Errata: Uncertain about very last measure due to legibility.

